status/symbolic/revolt-status-online-symbolic.svg

<?xml version="1.0" encoding="UTF-8" standalone="no"?>
<svg
   width="16"
   height="16"
   version="1"
   id="svg4"
   sodipodi:docname="revolt-status-online-symbolic.svg"
   inkscape:version="1.1.2 (0a00cf5339, 2022-02-04)"
   xmlns:inkscape="http://www.inkscape.org/namespaces/inkscape"
   xmlns:sodipodi="http://sodipodi.sourceforge.net/DTD/sodipodi-0.dtd"
   xmlns="http://www.w3.org/2000/svg"
   xmlns:svg="http://www.w3.org/2000/svg">
  <defs
     id="defs8" />
  <sodipodi:namedview
     id="namedview6"
     pagecolor="#ffffff"
     bordercolor="#666666"
     borderopacity="1.0"
     inkscape:pageshadow="2"
     inkscape:pageopacity="0.0"
     inkscape:pagecheckerboard="0"
     showgrid="false"
     inkscape:zoom="120.56171"
     inkscape:cx="9.9409675"
     inkscape:cy="11.96068"
     inkscape:window-width="1232"
     inkscape:window-height="967"
     inkscape:window-x="0"
     inkscape:window-y="29"
     inkscape:window-maximized="1"
     inkscape:current-layer="svg4" />
  <path
     style="fill:#5c616c"
     d="M 7.9941406,0 C 7.0747375,3.891354e-4 6.1635073,0.15925266 5.3001904,0.46843995 c -0.151081,0.054108 0.1479333,-0.0632717 0,0 0,0 -0.2092119,0.37986934 -0.1031609,0.49405527 0.4044766,0.43550328 0.6730327,0.98432048 0.7658611,1.57852038 0.03047,0.1105399 0.041701,0.2254967 0.033203,0.3398438 v 0.00391 C 5.998134,2.9231485 5.9994363,2.9615671 6,3 6,4.6568542 4.6568542,6 3,6 2.9628575,5.9987366 2.9257418,5.9967831 2.8886719,5.9941406 2.7650338,6.0046591 2.6405178,5.9920751 2.5214844,5.9570312 1.9353084,5.8629781 1.3938393,5.5978256 0.96249422,5.19987 c -0.11333467,-0.1045617 0,0 -0.49485996,0.1122516 -0.0642799,0.1492627 0.0549383,-0.1524952 0,0 C 0.15741607,6.1732101 -0.00314971,7.0823347 -0.00585938,8 c 0,4.418278 3.58172198,8 7.99999998,8 2.0334494,-0.0023 3.9866674,-0.778673 5.4652814,-2.16625 0.05588,-0.05244 -0.0545,0.05417 0,0 0,0 0.03113,-0.213855 -0.03545,-0.24139 -0.375712,-0.155388 -0.737328,-0.323367 -1.0786,-0.512632 -0.142935,-0.07927 0,0 -0.348413,0.161374 0.05313,0.134379 0.006,-0.136819 0,0 C 11.98242,13.572694 11.80284,13.886619 11.5,14.0625 11.02158,14.337909 10.410488,14.173552 10.134766,13.695312 9.8590293,13.217403 10.022469,12.606469 10.5,12.330078 c 0.07048,-0.04052 0.145362,-0.07213 0.222911,-0.09436 0.08223,-0.02356 0.167463,-0.03657 0.253651,-0.03845 0.05291,-9.36e-4 -0.306044,0.03095 -0.253651,0.03845 0,0 0.241302,-0.09948 0.213843,-0.171663 -0.02054,-0.05401 -0.04955,-0.114255 -0.08816,-0.159865 -0.313404,-0.370175 -0.560681,-0.805971 -0.702004,-1.285405 -0.04133,-0.140214 0,0 -0.4161729,-0.169706 -0.101196,0.09497 0.1120802,-0.0793 0,0 C 9.2271351,10.805145 8.6231883,10.999537 8,11 6.3431458,11 5,9.6568542 5,8 5,6.3431458 6.3431458,5 8,5 9.6568542,5 11,6.3431458 11,8 10.999443,8.013676 10.9988,8.027348 10.998,8.041016 11.128036,8.0111441 11.248719,7.9969715 11.339844,8 c 0.18763,0.00624 0.308091,0.037102 0.4375,0.066406 0.0098,0.00181 0.01956,0.00376 0.0293,0.00586 l 0.867015,0.2237032 v 0 c 0,0 0.32679,-0.1573478 0.326341,-0.2959692 0,-0.5522847 0.447715,-1 1,-1 0.552285,0 1,0.4477153 1,1 -2.3e-4,0.2422309 -0.08822,0.4736015 -0.243769,0.6533743 -0.04481,0.051789 0.05554,-0.042251 0,0 l 0.153517,0.2202485 0.994549,0.2572366 C 15.960967,8.7565072 15.990991,8.3786042 15.994141,8 15.994141,3.5817218 12.412419,-2.2091391e-7 7.9941406,0 Z M 3,1 C 1.8954305,1 1,1.8954305 1,3 1,4.1045695 1.8954305,5 3,5 4.1045695,5 5,4.1045695 5,3 5,1.8954305 4.1045695,1 3,1 Z M 8,1 C 8.5522847,1 9,1.4477153 9,2 9,2.5522847 8.5522847,3 8,3 7.4477153,3 7,2.5522847 7,2 7,1.4477153 7.4477153,1 8,1 Z m 2.953125,0.8046875 C 11.144372,1.7956936 11.334181,1.8417901 11.5,1.9375 11.978703,2.2139455 12.142301,2.8263436 11.865234,3.3046875 11.588843,3.7822184 10.977909,3.9456586 10.5,3.6699219 10.022469,3.3935306 9.859029,2.7825966 10.134766,2.3046875 c 0.169863,-0.2951307 0.478235,-0.483539 0.818359,-0.5 z M 13.171875,4 C 13.537897,3.99106 13.879544,4.1828578 14.0625,4.5 14.337909,4.9784205 14.173552,5.5895124 13.695312,5.8652344 13.217403,6.1409711 12.606469,5.9775309 12.330078,5.5 12.054341,5.0220909 12.217781,4.4111569 12.695312,4.1347656 12.840354,4.0505957 13.004234,4.0042526 13.171875,4 Z M 2,7 C 2.5522847,7 3,7.4477153 3,8 3,8.5522847 2.5522847,9 2,9 1.4477153,9 1,8.5522847 1,8 1,7.4477153 1.4477153,7 2,7 Z m 9.306641,2 c -0.188731,-0.00627 -0.213824,0.097137 -0.269532,0.3710938 -0.280349,1.8036212 1.354249,2.8043272 3.501953,3.5839842 0.256195,0.09097 0.278088,0.04569 0.433594,-0.148437 0.284128,-0.367873 0.452788,-0.75585 0.591797,-1.16211 0.124322,-0.363338 0.224823,-0.740993 0.363281,-1.128906 0.139074,-0.328745 0.08912,-0.321914 -0.259765,-0.412109 L 11.556641,9.0410156 C 11.449895,9.0168436 11.369552,9.0020911 11.306641,9 Z m -8.5273441,1 c 0.3660222,-0.00894 0.7076685,0.182858 0.890625,0.5 0.2757367,0.477909 0.1122965,1.088843 -0.3652344,1.365234 C 2.8263436,12.142301 2.2139455,11.978703 1.9375,11.5 1.662091,11.02158 1.8264476,10.410488 2.3046875,10.134766 2.4491521,10.05091 2.6123212,10.004578 2.7792969,10 Z m 2.1738281,2.197266 c 0.1912469,-0.009 0.381056,0.0371 0.546875,0.132812 0.4775309,0.276391 0.6409711,0.887325 0.3652344,1.365234 C 5.5895124,14.173552 4.9784205,14.337909 4.5,14.0625 4.0212962,13.786055 3.8576984,13.173656 4.1347656,12.695312 4.305107,12.400932 4.6133926,12.213313 4.953125,12.197266 Z M 8,13 c 0.5522847,0 1,0.447715 1,1 0,0.552285 -0.4477153,1 -1,1 -0.5522847,0 -1,-0.447715 -1,-1 0,-0.552285 0.4477153,-1 1,-1 z"
     id="path2"
     sodipodi:nodetypes="cscscccccccscsccscsscscccsccssscscssccscccccscscccccssssssssssccccccccccccsssssccccsccccccccccccccccsssss" />
</svg>

<svg xmlns="http://www.w3.org/2000/svg" width="16" height="16" version="1">
 <path style="fill:#5c616c" d="M 7.9941406 0 A 8 8 0 0 0 4.8515625 0.64453125 A 3 3 0 0 1 5.9628906 2.5410156 A 1 1 0 0 1 5.9960938 2.8808594 A 3 3 0 0 1 5.9960938 2.8847656 A 3 3 0 0 1 6 3 A 3 3 0 0 1 3 6 A 3 3 0 0 1 2.8886719 5.9941406 A 1 1 0 0 1 2.5214844 5.9570312 A 3 3 0 0 1 0.64648438 4.859375 A 8 8 0 0 0 -0.005859375 8 A 8 8 0 0 0 7.9941406 16 A 8 8 0 0 0 13.625 13.673828 C 13.017692 13.43251 12.443469 13.163045 11.927734 12.830078 A 1 1 0 0 1 11.5 14.0625 A 1 1 0 0 1 10.134766 13.695312 A 1 1 0 0 1 10.5 12.330078 A 1 1 0 0 1 10.976562 12.197266 A 1 1 0 0 1 11.134766 12.207031 C 10.584524 11.684649 10.170796 10.982539 10.050781 10.1875 A 3 3 0 0 1 8 11 A 3 3 0 0 1 5 8 A 3 3 0 0 1 8 5 A 3 3 0 0 1 11 8 A 3 3 0 0 1 10.998047 8.0410156 C 11.128036 8.0111441 11.248719 7.9969715 11.339844 8 C 11.527474 8.0062366 11.647935 8.0371025 11.777344 8.0664062 A 1.0001 1.0001 0 0 1 11.806641 8.0722656 L 13.085938 8.4023438 A 1 1 0 0 1 13 8 A 1 1 0 0 1 14 7 A 1 1 0 0 1 15 8 A 1 1 0 0 1 14.605469 8.7949219 L 15.904297 9.1308594 A 8 8 0 0 0 15.994141 8 A 8 8 0 0 0 7.9941406 0 z M 3 1 A 2 2 0 0 0 1 3 A 2 2 0 0 0 3 5 A 2 2 0 0 0 5 3 A 2 2 0 0 0 3 1 z M 8 1 A 1 1 0 0 1 9 2 A 1 1 0 0 1 8 3 A 1 1 0 0 1 7 2 A 1 1 0 0 1 8 1 z M 10.953125 1.8046875 A 1 1 0 0 1 11.5 1.9375 A 1 1 0 0 1 11.865234 3.3046875 A 1 1 0 0 1 10.5 3.6699219 A 1 1 0 0 1 10.134766 2.3046875 A 1 1 0 0 1 10.953125 1.8046875 z M 13.171875 4 A 1 1 0 0 1 14.0625 4.5 A 1 1 0 0 1 13.695312 5.8652344 A 1 1 0 0 1 12.330078 5.5 A 1 1 0 0 1 12.695312 4.1347656 A 1 1 0 0 1 13.171875 4 z M 2 7 A 1 1 0 0 1 3 8 A 1 1 0 0 1 2 9 A 1 1 0 0 1 1 8 A 1 1 0 0 1 2 7 z M 11.306641 9 C 11.11791 8.99373 11.092817 9.0971374 11.037109 9.3710938 C 10.75676 11.174715 12.391358 12.175421 14.539062 12.955078 C 14.795257 13.046048 14.81715 13.000766 14.972656 12.806641 C 15.256784 12.438768 15.425444 12.050791 15.564453 11.644531 C 15.688775 11.281193 15.789276 10.903538 15.927734 10.515625 C 16.066808 10.18688 16.016853 10.193711 15.667969 10.103516 L 11.556641 9.0410156 C 11.449895 9.0168436 11.369552 9.0020911 11.306641 9 z M 2.7792969 10 A 1 1 0 0 1 3.6699219 10.5 A 1 1 0 0 1 3.3046875 11.865234 A 1 1 0 0 1 1.9375 11.5 A 1 1 0 0 1 2.3046875 10.134766 A 1 1 0 0 1 2.7792969 10 z M 4.953125 12.197266 A 1 1 0 0 1 5.5 12.330078 A 1 1 0 0 1 5.8652344 13.695312 A 1 1 0 0 1 4.5 14.0625 A 1 1 0 0 1 4.1347656 12.695312 A 1 1 0 0 1 4.953125 12.197266 z M 8 13 A 1 1 0 0 1 9 14 A 1 1 0 0 1 8 15 A 1 1 0 0 1 7 14 A 1 1 0 0 1 8 13 z"/>
</svg>
